remix/Map/subway-line.svg

<svg viewBox="0 0 24 24" fill="currentColor" xmlns="http://www.w3.org/2000/svg"><path d="M17.2 20L19 21.5V22H5V21.5L6.8 20H5C3.89543 20 3 19.1046 3 18V7C3 4.79086 4.79086 3 7 3H17C19.2091 3 21 4.79086 21 7V18C21 19.1046 20.1046 20 19 20H17.2ZM13 5V11H19V7C19 5.89543 18.1046 5 17 5H13ZM11 5H7C5.89543 5 5 5.89543 5 7V11H11V5ZM19 13H5V18H19V13ZM7.5 17C6.67157 17 6 16.3284 6 15.5C6 14.6716 6.67157 14 7.5 14C8.32843 14 9 14.6716 9 15.5C9 16.3284 8.32843 17 7.5 17ZM16.5 17C15.6716 17 15 16.3284 15 15.5C15 14.6716 15.6716 14 16.5 14C17.3284 14 18 14.6716 18 15.5C18 16.3284 17.3284 17 16.5 17Z"/></svg>

<svg viewBox="0 0 24 24" xmlns="http://www.w3.org/2000/svg"><path fill="none" d="M0 0h24v24H0Z"/><path d="M17.2 20l1.8 1.5v.5H5v-.5L6.8 20H5v0c-1.11 0-2-.9-2-2V7v0c0-2.21 1.79-4 4-4h10v0c2.2 0 4 1.79 4 4v11 0c0 1.1-.9 2-2 2h-1.8ZM13 5v6h6V7v0c0-1.11-.9-2-2-2h-4Zm-2 0H7v0c-1.11 0-2 .89-2 2v4h6V5Zm8 8H5v5h14v-5ZM7.5 17v0c-.83 0-1.5-.68-1.5-1.5 0-.83.67-1.5 1.5-1.5v0c.82 0 1.5.67 1.5 1.5 0 .82-.68 1.5-1.5 1.5Zm9 0v0c-.83 0-1.5-.68-1.5-1.5 0-.83.67-1.5 1.5-1.5v0c.82 0 1.5.67 1.5 1.5 0 .82-.68 1.5-1.5 1.5Z"/></svg>
